images_elementary_svg/cmd/sc_crop.svg

<?xml version="1.0" encoding="UTF-8" standalone="no"?>
<svg
   xmlns:dc="http://purl.org/dc/elements/1.1/"
   xmlns:cc="http://creativecommons.org/ns#"
   xmlns:rdf="http://www.w3.org/1999/02/22-rdf-syntax-ns#"
   xmlns:svg="http://www.w3.org/2000/svg"
   xmlns="http://www.w3.org/2000/svg"
   xmlns:xlink="http://www.w3.org/1999/xlink"
   xmlns:sodipodi="http://sodipodi.sourceforge.net/DTD/sodipodi-0.dtd"
   xmlns:inkscape="http://www.inkscape.org/namespaces/inkscape"
   height="16"
   width="16"
   version="1.1"
   id="svg26"
   sodipodi:docname="sc_crop.svg"
   inkscape:version="0.92.3 (2405546, 2018-03-11)"
   inkscape:export-filename="/home/rizmut/Documents/Rizmut/Github/libreoffice-style-elementary/images_elementary/cmd/sc_crop.png"
   inkscape:export-xdpi="96"
   inkscape:export-ydpi="96">
  <metadata
     id="metadata32">
    <rdf:RDF>
      <cc:Work
         rdf:about="">
        <dc:format>image/svg+xml</dc:format>
        <dc:type
           rdf:resource="http://purl.org/dc/dcmitype/StillImage" />
      </cc:Work>
    </rdf:RDF>
  </metadata>
  <defs
     id="defs30">
    <linearGradient
       gradientTransform="translate(-16,-23)"
       id="b"
       gradientUnits="userSpaceOnUse"
       x1="11.53333"
       x2="11.53333"
       xlink:href="#c"
       y1="14.000001"
       y2="29.527292" />
    <linearGradient
       id="c">
      <stop
         offset="0"
         stop-color="#fff"
         id="stop8" />
      <stop
         offset="0.12513407"
         stop-color="#fff"
         stop-opacity=".235294"
         id="stop10" />
      <stop
         offset="0.80000001"
         stop-color="#fff"
         stop-opacity=".156863"
         id="stop12" />
      <stop
         offset="1"
         stop-color="#fff"
         stop-opacity=".392157"
         id="stop14" />
    </linearGradient>
    <linearGradient
       inkscape:collect="always"
       xlink:href="#c"
       id="linearGradient957"
       x1="5"
       y1="3"
       x2="5"
       y2="13"
       gradientUnits="userSpaceOnUse" />
    <linearGradient
       inkscape:collect="always"
       xlink:href="#c"
       id="linearGradient959"
       x1="5"
       y1="11.5"
       x2="15"
       y2="11.5"
       gradientUnits="userSpaceOnUse" />
  </defs>
  <sodipodi:namedview
     pagecolor="#ffffff"
     bordercolor="#666666"
     borderopacity="1"
     objecttolerance="10"
     gridtolerance="10"
     guidetolerance="10"
     inkscape:pageopacity="0"
     inkscape:pageshadow="2"
     inkscape:window-width="1316"
     inkscape:window-height="732"
     id="namedview28"
     showgrid="true"
     inkscape:zoom="14.75"
     inkscape:cx="0.93117569"
     inkscape:cy="1.8730179"
     inkscape:window-x="50"
     inkscape:window-y="0"
     inkscape:window-maximized="1"
     inkscape:current-layer="svg26">
    <inkscape:grid
       type="xygrid"
       id="grid849" />
  </sodipodi:namedview>
  <path
     inkscape:connector-curvature="0"
     style="fill:#e9b986;stroke:none;stroke-width:0.98277003;stroke-linecap:round;stroke-linejoin:round"
     id="path2"
     d="m 2.4913845,0.4921875 v 10.0000005 3.015624 h 3.015625 9.9999995 V 10.492188 H 5.5070095 V 0.4921875 Z" />
  <path
     style="fill:#a1550a;stroke:#ad7237;stroke-linecap:round;stroke-linejoin:round;fill-opacity:1;opacity:0.3"
     inkscape:connector-curvature="0"
     id="path4"
     d="m 7.999197,11 h 1 v 1 h -1 z" />
  <path
     style="fill:#e9b986;stroke:#ad7237;stroke-linecap:round;stroke-linejoin:round"
     inkscape:connector-curvature="0"
     id="path6"
     d="m 11.999197,11 h 1 v 1 h -1 z" />
  <path
     style="fill:#e9b986;stroke:#ad7237;stroke-linecap:round;stroke-linejoin:round"
     inkscape:connector-curvature="0"
     id="path8"
     d="m 3.999197,3 h 1 v 1 h -1 z" />
  <path
     style="fill:#a1550a;stroke:#ad7237;stroke-linecap:round;stroke-linejoin:round;fill-opacity:1;opacity:0.3"
     inkscape:connector-curvature="0"
     id="path10"
     d="m 3.999197,7 h 1 v 1 h -1 z" />
  <path
     inkscape:connector-curvature="0"
     style="fill:#e9b986;stroke:#ad7237;stroke-width:0;stroke-linecap:round;stroke-linejoin:round;stroke-miterlimit:4;stroke-dasharray:none"
     id="path14"
     d="m 13.50701,15.508615 0,-10 V 2.492991 h -3.015625 l -10,0 v 3.015624 l 10,0 v 10 z" />
  <path
     style="fill:#a1550a;stroke:#ad7237;stroke-linecap:round;stroke-linejoin:round;fill-opacity:1;opacity:0.3"
     inkscape:connector-curvature="0"
     id="path16"
     d="m 7.999197,5.000803 -1,0 v -1 l 1,0 z" />
  <path
     style="fill:#a1550a;stroke:#ad7237;stroke-linecap:round;stroke-linejoin:round;fill-opacity:1;opacity:0.3"
     inkscape:connector-curvature="0"
     id="path18"
     d="m 3.999197,5.000803 h -1 v -1 h 1 z" />
  <path
     style="fill:#a1550a;stroke:#ad7237;stroke-linecap:round;stroke-linejoin:round;fill-opacity:1;opacity:0.3"
     inkscape:connector-curvature="0"
     id="path20"
     d="m 11.999197,13.000803 h -1 v -1 h 1 z" />
  <path
     style="fill:#a1550a;stroke:#ad7237;stroke-linecap:round;stroke-linejoin:round;fill-opacity:1;opacity:0.3"
     inkscape:connector-curvature="0"
     id="path22"
     d="m 11.999197,9.000803 h -1 v -1 h 1 z" />
  <path
     d="m 2.4913845,0.4921875 v 10.0000005 3.015624 h 3.015625 9.9999995 V 10.492188 H 5.5070095 V 0.4921875 Z"
     id="path925"
     style="fill:none;stroke:#a1550a;stroke-width:1;stroke-linecap:round;stroke-linejoin:round;stroke-opacity:1;stroke-miterlimit:4;stroke-dasharray:none;opacity:0.5"
     inkscape:connector-curvature="0" />
  <path
     d="m 13.50701,15.508615 0,-10 V 2.492991 h -3.015625 l -10,0 v 3.015624 l 10,0 v 10 z"
     id="path927"
     style="fill:none;stroke:#a1550a;stroke-width:1;stroke-linecap:round;stroke-linejoin:round;stroke-miterlimit:4;stroke-dasharray:none;stroke-opacity:1;opacity:0.5"
     inkscape:connector-curvature="0" />
  <path
     inkscape:connector-curvature="0"
     style="opacity:0.5;fill:none;stroke:url(#b);stroke-linejoin:round"
     d="m -14,-9.5 h 2 m 4,0 H 3 M 1.53506,7 1.5,-8"
     id="path43" />
  <rect
     style="opacity:0.5;fill:url(#linearGradient957);fill-opacity:1;stroke:none;stroke-width:1;stroke-miterlimit:4;stroke-dasharray:none;stroke-opacity:1"
     id="rect947"
     width="12"
     height="1"
     x="1"
     y="3" />
  <rect
     style="opacity:0.5;fill:url(#linearGradient959);fill-opacity:1;stroke:none;stroke-width:1;stroke-miterlimit:4;stroke-dasharray:none;stroke-opacity:1"
     id="rect949"
     width="10"
     height="1"
     x="5"
     y="11" />
</svg>

<svg xmlns="http://www.w3.org/2000/svg" xmlns:xlink="http://www.w3.org/1999/xlink" height="16" width="16"><defs><linearGradient gradientTransform="translate(-16 -23)" id="b" gradientUnits="userSpaceOnUse" x1="11.533" x2="11.533" xlink:href="#a" y1="14" y2="29.527"/><linearGradient id="a"><stop offset="0" stop-color="#fff"/><stop offset=".125" stop-color="#fff" stop-opacity=".235"/><stop offset=".8" stop-color="#fff" stop-opacity=".157"/><stop offset="1" stop-color="#fff" stop-opacity=".392"/></linearGradient><linearGradient xlink:href="#a" id="c" x1="5" y1="3" x2="5" y2="13" gradientUnits="userSpaceOnUse"/><linearGradient xlink:href="#a" id="d" x1="5" y1="11.5" x2="15" y2="11.5" gradientUnits="userSpaceOnUse"/></defs><path d="M2.49.492v13.016h13.017v-3.016h-10v-10z" fill="#e9b986"/><path d="M8 11h1v1H8z" fill="#a1550a" stroke="#ad7237" stroke-linecap="round" stroke-linejoin="round" opacity=".3"/><path d="M12 11h1v1h-1zM4 3h1v1H4z" fill="#e9b986" stroke="#ad7237" stroke-linecap="round" stroke-linejoin="round"/><path d="M4 7h1v1H4z" fill="#a1550a" stroke="#ad7237" stroke-linecap="round" stroke-linejoin="round" opacity=".3"/><path d="M13.507 15.51V2.492H.49V5.51h10v10z" fill="#e9b986"/><path d="M8 5H7V4h1zM4 5H3V4h1zM12 13h-1v-1h1zM12 9h-1V8h1z" fill="#a1550a" stroke="#ad7237" stroke-linecap="round" stroke-linejoin="round" opacity=".3"/><path d="M2.49.492v13.016h13.017v-3.016h-10v-10z" fill="none" stroke="#a1550a" stroke-linecap="round" stroke-linejoin="round" opacity=".5"/><path d="M13.507 15.51V2.492H.49V5.51h10v10z" fill="none" stroke="#a1550a" stroke-linecap="round" stroke-linejoin="round" opacity=".5"/><path d="M-14-9.5h2m4 0H3M1.535 7L1.5-8" opacity=".5" fill="none" stroke="url(#b)" stroke-linejoin="round"/><path opacity=".5" fill="url(#c)" d="M1 3h12v1H1z"/><path opacity=".5" fill="url(#d)" d="M5 11h10v1H5z"/></svg>
